X:131
T:Polska efter Fritz Oskar Brogren
T:(SvL Halland 131)
R:Polska
O:Släp, Halland
S:Fritz Oskar Brogren
B:Svenska Låtar Halland
M:3/4
L:1/8
K:G
.g2 d3 c|BA G3 G|FG A2 g2|fe d2 z2:| |:eB cB ce|ed dc Bd|
dB cA FA|AG (GB) d2|eB cB ce|ed dc Bd|dB cA FA|A2 G2 z2:|

